X:1
T:Title
%%score { ( 1 3 ) | ( 2 4 ) }
L:1/8
Q:1/4=104
M:6/8
K:F
V:1 treble nm="Grand Piano"
V:3 treble 
V:2 bass 
V:4 bass 
V:1
 A>GF GFE | z CG A3 | [Ac]>BA [CGB]AG | .[FA]3 z3 | [DBf]2 [^CBe] [DBf]2 [FBd] | [FAc]3 [CFA]3 | %6
w: J.~H.~Tenney * * * * *||||||
 [Af]3 [Ge]2 [Fd] | [CEc]6 | [Ac]2 [Ac] [Ac]2 [Bd] | [Ac]3 [GB]3 | [GB]2 [GB] [GB]2 [Ac] | %11
w: |||||
 [GB]3 [EG]3 | [FA]2 [FA] [^FA]B[DAc] | [DGB]3 D2- [DG] | [A,CF]2 [A,F] [CEA]2 [B,EG] | [A,F]6 | %16
w: |||||
 [CFA]2 [FA] .[FGB]2 [D_A=B] | [CAc]3 A3 | c2 d B2 c | A6 | f2 e f2 [FBd] | [FAc]3 [CFA]3 | %22
w: ||||||
 [DBf]2 [^CBe] [DBf]2 [FBd] | [FAc]6 | A2 c B2 d | c2 f d2 B | A3 [EG]3 | A3 c2 B | A2 c B2 d | %29
w: |||||||
 c2 f d2 B | A3 [EG]3 | F6 |] %32
w: |||
V:2
 .[F,A,C]3 .[C,E,G,B,]3 | [F,A,C][F,A,][F,A,C] [F,A,C]3 | %2
 .[F,A,C]>[K:treble]GF[K:bass] [C,E,G,]FE | F,F,[F,A,C] [F,A,C]3 | B,,2 B,, B,,2 B,, | F,3 F,3 | %6
 [F,C]3 [G,=B,]2 [G,B,] | C,6 | C,2 C, C,2 C, | C,3 C,3 | [C,C]2 [C,C] [C,C]2 [C,C] | %11
 [C,C]3 [C,C]3 | [F,C]2 [F,C] z GD, | G,3 z2 B, | C,2 C, C,2 C, | F,6 | F,2 F, z EF, | %17
 F,3[K:treble] [F,CF]3 | [A,CF]2 [B,F] [G,CE]2 [A,CF] | [F,CF]6 | [B,,DB]2 [B,,^CB] [B,,DB]2 B,, | %21
 F,3 F,3 | B,,2 B,, B,,2 B,, | F,6 | [F,CF]2 [F,A,F] [G,CE]2 [G,B,E] | %25
 [A,CF]2 [A,CF] [B,F]2 [B,DG] | [CF]3[K:bass] [C,C]3 | C3- [A,C-F]2 [G,CE] | %28
 [F,CF]2[K:treble] [F,A,F] [G,CE]2 [G,B,E] | [A,CF]2 [A,CF] [B,F]2 [B,DG] | [CF]3[K:bass] [C,C]3 | %31
 [F,A,]6 |] %32
V:3
 x6 | .F3 z3 | x6 | [A,C][A,C][GB] [Ac]3 | x6 | x6 | x6 | x6 | x6 | x6 | x6 | x6 | x6 | z3 .[CA]3 | %14
 x6 | x6 | x6 | x6 | x6 | x6 | x6 | x6 | x6 | x6 | x6 | x6 | x6 | x6 | x6 | x6 | x6 | x6 |] %32
V:4
 x6 | x6 | x3/2[K:treble] x3/2[K:bass] x3 | x6 | x6 | x6 | x6 | x6 | x6 | x6 | x6 | x6 | %12
 z3 .[D,D]3 | z3 B,,3 | x6 | x6 | z3 .F,3 | x3[K:treble] x3 | x6 | x6 | x6 | x6 | x6 | x6 | x6 | %25
 x6 | x3[K:bass] x3 | [F,F]3 z3 | x2[K:treble] x4 | x6 | x3[K:bass] x3 | x6 |] %32

